X:1
T:The Natural Way
M:C|
L: 1/8
R:reel
N:Written as a ſecondary tune for Cryſtal Congratulations, a dance by Moira Turner.
C:T. S. Macdonald
K:A
c | dBAG A2 ed | cBAc dBBe | dBAG A2 Bc | deBd cAA :|:
B | c2 c2 d2 ed | cefa ecAB | c2 c2 d2 Bc | deBd cAA :|:
g | agfe f3 g | af f/f/f bagf | agfe f3 g | afeg aff :|:
e | fedc dcBA | c2 c2 d3 e | fedc dcBc | deBd cAA :|:
B | c2 c2 B3 A Bded cAAB  | c2 c2 B3 c | dBed cAA :|]

